X:176 
T:Ripples on the River* (hornpipe)  
F:file ID: cre.5/176ripp_r
B:CRE5.215 (gan ainm)
M:4/4
Q:140
R:hornpipe
K:D
fe|dAFA dADA|dcde fefg|a2gf g2fe|f2ed egfe|
dAFA dADA|dcde fefg|afge fdec|dfec d2:|
fg|a2gf g2fe|f2ed efge|dffa agge|ff (3fed efgb|
a2gf g2fe|f2ed egfe|dffa gfge|dfec d2:|

%%%

